X:1
T:Missa L'Hora Passa
T:Ludovico da Viadana arr. B. Marble
T:Missa L’Hora Passa
T:Copyright © 2016 by CPDL.  This edition can be fully distributed, duplicated, performed, and recorded 
T:Copyright © 2016 by CPDL.  This edition can be fully distributed, duplicated, performed, and recorded 
T:Copyright © 2016 by CPDL.  This edition can be fully distributed, duplicated, performed, and recorded 
T:Copyright © 2016 by CPDL.  This edition can be fully distributed, duplicated, performed, and recorded 
T:Copyright © 2016 by CPDL.  This edition can be fully distributed, duplicated, performed, and recorded 
T:Copyright © 2016 by CPDL.  This edition can be fully distributed, duplicated, performed, and recorded 
T:Copyright © 2016 by CPDL.  This edition can be fully distributed, duplicated, performed, and recorded 
T:Copyright © 2016 by CPDL.  This edition can be fully distributed, duplicated, performed, and recorded 
T:Copyright © 2016 by CPDL.  This edition can be fully distributed, duplicated, performed, and recorded 
T:Copyright © 2016 by CPDL.  This edition can be fully distributed, duplicated, performed, and recorded 
T:Copyright © 2016 by CPDL.  This edition can be fully distributed, duplicated, performed, and recorded 
T:Copyright © 2016 by CPDL.  This edition can be fully distributed, duplicated, performed, and recorded 
T:Copyright © 2016 by CPDL.  This edition can be fully distributed, duplicated, performed, and recorded 
T:Copyright © 2016 by CPDL.  This edition can be fully distributed, duplicated, performed, and recorded 
T:Copyright © 2016 by CPDL.  This edition can be fully distributed, duplicated, performed, and recorded 
T:Copyright © 2016 by CPDL.  This edition can be fully distributed, duplicated, performed, and recorded 
T:Copyright © 2016 by CPDL.  This edition can be fully distributed, duplicated, performed, and recorded 
T:Copyright © 2016 by CPDL.  This edition can be fully distributed, duplicated, performed, and recorded 
T:Copyright © 2016 by CPDL.  This edition can be fully distributed, duplicated, performed, and recorded 
T:Copyright © 2016 by CPDL.  This edition can be fully distributed, duplicated, performed, and recorded 
T:Copyright © 2016 by CPDL.  This edition can be fully distributed, duplicated, performed, and recorded 
T:Copyright © 2016 by CPDL.  This edition can be fully distributed, duplicated, performed, and recorded 
T:Copyright © 2016 by CPDL.  This edition can be fully distributed, duplicated, performed, and recorded 
T:Copyright © 2016 by CPDL.  This edition can be fully distributed, duplicated, performed, and recorded 
T:Copyright © 2016 by CPDL.  This edition can be fully distributed, duplicated, performed, and recorded 
T:Copyright © 2016 by CPDL.  This edition can be fully distributed, duplicated, performed, and recorded 
T:Copyright © 2016 by CPDL.  This edition can be fully distributed, duplicated, performed, and recorded 
C:arr. BMarble
Z:Copyright © 2016 by CPDL.  This edition can be fully distributed, duplicated, performed, and recorded
%%score [ 1 2 3 4 ]
L:1/8
Q:1/2=112
M:4/2
K:C
V:1 treble nm="Sopr." snm="S."
V:2 treble nm="Alto" snm="A."
V:3 treble-8 transpose=-12 nm="Tenor" snm="T."
V:4 bass nm="Bass" snm="B."
V:1
 G8 d4 d4 | e8 d8 | (c2 d2 e2 c2) d4 B4 | (A4 d4) B4 c4- | (c4 B4) A4 c4 | (B4 G8 ^F4) | G16 || %7
w: Ky- rie e-|lei- son,|Ky- * * * rie e-|lei- * son, Ky-|* * rie e-|lei- * *|son.|
 d8 B4 d4 | (c4 B4) A4 (c4 | B8 A8) | G4 B8 c4- | c2 A2 d8 ^c4 | d16 ||[M:3/2] B4 c4 B4 | %14
w: Chri- ste e-|lei- * son, Chri-||ste e- lei-||son.|Ky- rie e-|
 (c6 d2) c4 | B4 c4 d4 | (e6 dc) B4 | A4 B4 ^c4 | d12 | B12 |][M:4/2] B6 B2 B4 c4 | B4 B4 A6 A2 | %22
w: lei- * son,|Ky- rie e-|lei- * * son,|Ky- rie e-|lei-|son.|Et in ter- ra|pax ho- mi- ni-|
 B4 B8 A4 | B4 ^c4 d8 | B8 z8 | z4 B6 B2 c4 | A4 B4 c8 | z16 | z4 B4 B4 c4 | A4 B4 c4 c4- | %30
w: bus bo- nae|vo- lun- ta-|tis.|Be- ne- di-|ci- mus te.||Glo- ri- fi-|ca- mus te. Gra-|
 c2 c2 c4 A6 A2 | A4 A8 A4 | B4 c4 d8 | c4 c6 c2 d4- | d4 ^c4 d4 B4- | B2 B2 B4 A4 B4 | c8 c8 | %37
w: * ti- as a- gi-|mus ti- bi|pro- pter ma-|gnam glo- ri- am|* tu- am. Do-|* mi- ne De- us.|Rex coe-|
 d8 G4 G4- | G4 G4 A8 | G4 G4 ^F6 F2 | G4 d6 d2 B4 | d4 e4 d4 c4 | B6 AG A4 B4 | A6 A2 G8 | c8 B8 | %45
w: le- stis. De-|* us Pa-|ter o- mni- po-|tens. Do- mi- ne|Fi- li u- ni-|ge- * * * *|* ni- te:|Je- su|
 e16 | A8 z8 | z16 | z16 | z16 | B6 B2 B4 c4- | c2 A2 d8 ^c4 | d16 || B4 c4 d4 c4 | c4 B4 A8 | %55
w: Chri-|ste.||||Fi- li- us Pa-||tris.|Qui tol- lis pec-|ca- ta mun-|
 B4 B8 c4 | A4 B4 c8 | B4 B4 c4 d4 | c4 c8 B4 | A8 B4 c4- | c2 c2 c4 c6 c2 | d4 d4 ^c4 d4 | %62
w: di: mi- se-|re- re no-|bis. Qui tol- lis|pec- ca- ta|mun- di: su-|* sci- pe de- pre-|ca- ti- o- nem|
 ^c8 d4 d4 | d8 e4 e4 | d4 d2 d2 c8 | B4 c8 B4 | A4 ^G4 A8 | ^G8 A6 A2 | A4 A4 B4 A4 | A8 A4 A4 | %70
w: nos- tram. Qui|se- des a|dex- te- ram Pa-|tris: mi- se-|re- re no-|bis. Quo- ni-|am tu so- lus|San- ctus; tu|
 (A2 B2 c2 A2 B4) c4 | B6 B2 A8 | z4 c4 d4 A4 | c8 c6 c2 | c4 c8 B4 | A8 B4 G4 | d4 d4 e6 e2 | %77
w: so- * * * * lus|Do- mi- nus;|tu so- lus|Al- tis- si-|mus: Je- su|Chri- ste. Cum|San- cto Spi- ri-|
 d4 B4 (c8 | B6) B2 A4 B4- | (B4 c8) B4 | A8 B4 B4 | c4 c4 B4 c4- | c4 A4 (B4 ^c4) | d8 A8 | B16 |] %85
w: tu in glo-|* ri- a De-|* * i|Pa- tris, in|glo- ri- a De-|* i Pa- *|tris A-|men.|
[M:4/2] z8 d8 | B4 G4 G4 c4 | (B8 A8) | B8 z4 d4 | B4 B4 (A6 GA | B4) c8 A4 | d8 G8 | B6 B2 A4 B4 | %93
w: Pa-|trem o- mni- po-|ten- *|tem fa-|cto- rem coe- * *|* li et|ter- rae|vi- si- bi- li-|
 c4 c8 c4 | B4 c4 G8 | A4 c4 c8- | c4 B4 c8 | B6 B2 B4 B4 | A4 A4 B4 c4- | c4 B4 A8 | B4 d6 c2 B4 | %101
w: um o- mni-|um et in-|vi- si- bi-|* li- um.|Et in u- num|Do- mi- num Je-|* sum Chri-|stum Fi- li- um|
 c4 A4 (d2 c2 B2 A2 | B4) c4 B8 | A8 G4 G4- | G4 G4 A4 B4 | c8 B4 c4 | B4 c6 c2 d4 | c6 c2 B4 B4 | %108
w: De- i u- * * *|* ni- ge-|ni- tum. Et|* ex Pa- tre|na- tum an-|te o- mni- a|sae- cu- la. De-|
 c4 d4 e8 | d4 B4 A4 c4 | B6 B2 c4 c4- | c4 d4 c8 | B8 z8 | z16 | e6 d2 c4 B4 | A8 B4 B4- | %116
w: um de De-|o. Lu- men de|Lu- mi ne. De-|* um ve-|rum.||Ge- ni- tum non|fa- ctum con-|
 B2 B2 B2 B2 A4 c4- | c4 B4 c4 c4 | d4 c6 B2 A4 | B4 A4 B4 B4 | B4 c4 B8 | A6 A2 B4 B4 | c4 c4 d8 | %123
w: * sub- stan- ti- a- lem|* Pa- tri: per|quem o- mni- a|fa- cta sunt. Qui|pro- pter nos|ho- mi- nes et|pro- pter nos-|
 d4 c4 c8 | B8 c8 | B8 A4 G4 | A16 | A8 z8 ||[Q:1/2=80] G8 G4 G4 | A4 A4 A8 | B4 c6 c2 c4 | %131
w: tram sa- lu-|tem de-|scen- dit de|coe-|lis.|Et in- car-|na- tus est|de Spi- ri- tu|
 d8 ^c8 | z4 B8 B4 | =c4 B4 A8- | A4 ^G4 A8 | z8 A8 | B8 c4 A4- | A2 G2 G8 ^F4 | G16 || %139
w: San- cto|ex Ma-|ri- a Vir-|* gi- ne|et|ho- mo fa-|* * * ctus|est.|
[Q:1/2=112] B6 B2 c4 B4 | c4 d4 c4 e4 | d8 d8 | c8 c8 | _B4 B8 A4 | A8 G4 G4- | G4 F4 F8 | %146
w: Cru- ci- fi- xus|e- ti- am pro|no- bis|sub Pon-|ti- o Pi-|la- to, pas-|* sus et|
 E4 E8 D4 | E8 z8 || e4 c4 d4 e4- | e4 d4 c8 | B4 c4 c8 | B4 B4 A4 c4- | c4 B4 e8 | A4 B4 d4 c4 | %154
w: se- pul- tus|est.|Et re- sur- re-|* xit ter-|ti- a di-|e se- cun- dum|* scri- ptu-|ras. Et a- scen-|
 B4 B4 c8 | B4 c4 d4 c4 | c4 d4 e4 c4- | (c4 B4) c8 || z4 d4 e6 d2 | e4 d4 B4 e4 | d4 e4 c4 d4 | %161
w: dit in coe-|lum; se- det ad|dex- te- ram Pa-|* * tris.|Et i- te-|rum ven- tu- rus|est cum glo- ri-|
 e4 c8 d4 | B8 A4 A4 | B4 G4 c6 c2 | B8 z8 | z8 z4 c4- | c4 d4 e4 c4 | d4 f8 e4 | %168
w: a ju- di-|ca- re vi-|vos et mor- tu-|os.|Cu-|* jus re- gni|non e- rit|
 d4 c2 B2 c2 A2 B2 G2 | A4 B4 c8 || e4 e4 d4 d2 d2 | c4 B4 A4 A4 | B4 c4 G8 | A4 B4 c8 | B8 z8 | %175
w: fi- * * * * * *|* * nis.|Et in Spi- ri- tum|San- ctum Do- mi-|num et vi-|vi- fi- can-|tem:|
 z16 | z16 | z8 G4 G4 | c8 A4 A4 | B2 A2 G2 A2 B2 c2 d4- | d4 ^c4 d4 B4- | B4 B4 c4 B4 | %182
w: ||Qui cum|Pa- tre et|Fi- * * * * * *|* li- o si-|* mul a- do-|
 A8 ^G4 G4 | A4 B4 c4 B4 | A8 B4 c4- | c4 c4 c4 d4 | e4 c6 A2 c4- | (c4 B4) c8 | z4 B4 B4 B4 | %189
w: ra- tur et|con- glo- ri- fi-|ca- tur. Qui|* lo- cu- tus|est per Pro- phe-|* * tas.|Et u- nam|
 A8 B4 c4 | c6 c2 d4 e4 | c4 d4 e6 d2 | e4 d4 c4 c4 | B4 B4 A6 A2 | B4 B4 A4 A4 | B8 c4 c4- | %196
w: San- ctam Ca-|tho- li- cam et|A- po- sto- li-|cam Ec- cle- si-|am. Con- fi- te-|or u- num ba-|pti- sma in|
 c2 c2 c2 c2 d4 f4 | e4 d8 ^c4 | d4 B8 =c4 | d8 d4 e4- | e2 e2 e2 e2 e4 c4 | d4 e4 c8 | B8 c4 G4 | %203
w: * re- mis- si- o- nem|pec- ca- to-|rum. Et ex-|spe- cto re-|* sur- re- cti- o- nem|mor- tu- o-|rum. Et vi-|
 A4 c4 d4 A4 | B4 G8 B4 | c6 B2 A4 c4 | d4 _B4 B6 A2 | G4 (c8 B4) | c8 z8 | (B8 A8) | B16 |] %211
w: tam, et vi- tam|ven- tu- ri|sae- cu- li, ven-|tu- ri sae- cu-|li. A- *|men,|a- *|men.|
[M:4/2] (G8 d8 | e8) d4 B4 | c2 d2 e2 c2 d4 B4 | A4 d4 c4 c4- | (c2 BA B4) c4 A4 | B4 e6 d2 c2 B2 | %217
w: San- *|* ctus, san-||* * ctus, san-|* * * * ctus, san-||
 c2 A2 d6 c2 B2 A2 | G4 c4 A8 | B4 B6 B2 B4 | c4 c4 c4 B4 | c8 B8 | c4 c4 c8 | B4 B4 A8 | %224
w: |* ctus, san-|ctus. Do- mi- nus|De- us Sa- ba-|oth. Ple-|ni sunt coe-|li et ter-|
 B4 c6 c2 d4- | d4 ^c4 d4 B4 | c4 B4 c8 | B4 (G8 ^F4) | G16 |][M:4/2] d12 B4 | (d4 e4) d4 c4 | %231
w: ra glo- ri- a|* tu- a. Ho-|san- na in|ex- cel- *|sis.|Be- ne-|di- * ctus qui|
 (B6 AG) A4 B4 | A6 A2 B8 | z16 | z16 | z8 z4 A4 | B6 c2 d4 c4- | c4 B4 c8 | z4 B4 e6 d2 | %239
w: ve- * * nit in|no- mi- ne,|||in|no- mi- ne Do-|* mi- ni.|Ho- san- na|
 c4 B4 d8 | d16 |]:[M:4/2] B12 B4 | c16 | B8 z8 | c8 c8 | c8 z8 | z8 B8 | c8 B8- | B4 G4 (A6 B2 ||1 %249
w: in ex- cel-|sis.|A- gnus|De-|i|qui tol-|lis,|qui|tol- lis|* pec- ca- *|
 c2 d2 e8) d4 | (c8 B8) | c4 B8 c4 | (A2 G2 A2 B2 c4 d4-) | d4 ^c4 (d4 A4) | B8 A8 | B4 (d8 e4-) | %256
w: * * * ta|mun- *|di: mi- se-|re- * * * * *|* re no- *|bis, mi-|se- re- *|
 e4 d4 c8 | B16 :|2 c2 d2 e8 d4 || (c8 B8) | c4 B8 c4 | (A2 G2 A2 B2 c4 d4-) | d4 ^c4 (d4 A4) | %263
w: * re no-|bis.|* * * ta|mun- *|di: do- na|no- * * * * *|* bis pa- *|
 B8 A8 | B4 (d8 e4-) | e4 d4 c8 | B16 |] %267
w: cem, do-|na no- *|* bis pa-|cem.|
V:2
 z16 | C8 G4 G4 | A8 G8 | (!courtesy!^F2 G2 A2 F2) G8 | (G6 =F2 E8) | (G4 D12) | D16 || z8 G8 | %8
w: |Ky- rie e-|lei- son,|Ky- * * * rie|e- * *|lei- *|son.|Chri-|
 E4 G4 (F4 A4-) | A2 G2 G8 ^F4 | G16 | A16 | A16 ||[M:3/2] G4 E4 G4 | G8 A4 | D4 A4 A4 | G8 G4 | %17
w: ste e- lei- *|* * * son,|e-|lei-|son.|Ky- rie e-|lei- son,|Ky- rie e-|lei- son,|
 D4 G4 G4- | G4 ^F8 | G12 |][M:4/2] G6 G2 G4 G4 | G4 G4 E4 !courtesy!^F4 | G4 G8 A4 | G4 G8 ^F4 | %24
w: Ky- rie e-|* lei-|son.|Et in ter- ra|pax ho- mi- ni-|bus bo- nae|vo- lun- ta-|
 G8 z8 | z4 G6 G2 E4 | =F4 D4 C8 | z16 | z4 G4 G4 E4 | =F4 D4 C4 G4- | G2 G2 G4 F6 F2 | F4 F8 F4 | %32
w: tis.|Be- ne- di-|ci- mus te.||Glo- ri- fi-|ca- mus te. Gra-|* ti- as a- gi-|mus ti- bi|
 G4 A4 (F4 G4) | A4 A6 A2 A4 | A8 A4 G4- | G2 G2 G4 E4 G4 | A12 G4 | F8 E4 E4- | E4 E4 F8 | %39
w: pro- pter ma- *|gnam glo- ri- am|tu- am. Do-|* mi- ne De- us.|Rex coe-|le- stis. De-|* us Pa-|
 E4 C4 D6 D2 | D8 z4 G4- | G2 G2 E4 G4 A4 | G4 E4 (^F4 G4-) | G4 ^F4 G8 | G8 G8 | G16 | ^F8 z8 | %47
w: ter o- mni- po-|tens. Do-|* mi- ne Fi- li|u- ni- ge- *|* ni- te:|Je- su|Chri-|ste.|
 z16 | A8 G8 | =F8 E8 | z8 G8 | A4 A4 A8 | A16 || G4 G4 G4 G4 | A4 G4 (E4 =F4) | G4 G8 G4 | %56
w: |A- gnus|De- i.|Fi-|li- us Pa-|tris.|Qui tol- lis pec-|ca- ta mun- *|di: mi- se-|
 =F4 F4 G8 | G4 G4 G4 G4 | G4 A8 G4 | (E4 =F4) G4 G4- | G2 G2 G4 A6 A2 | A4 A4 A4 G4 | A8 A4 G4 | %63
w: re- re no-|bis. Qui tol- lis|pec- ca- ta|mun- * di: su-|* sci- pe de- pre-|ca- ti- o- nem|nos- tram. Qui|
 G8 G4 G4 | G4 G2 G2 (E4 F4) | G4 G8 G4 | E4 E4 (C4 D4) | E8 E6 E2 | E4 E4 E4 E4 | F8 E4 E4 | %70
w: se- des a|dex- te- ram Pa- *|tris: mi- se-|re- re no- *|bis. Quo- ni-|am tu so- lus|San- ctus; tu|
 F8 E4 A4- | A4 ^G4 A8 | z4 A8 F4 | G4 A4 G6 G2 | A4 A8 G4 | (E4 !courtesy!^F4) G8- | G8 z4 C4 | %77
w: so- lus Do-|* mi- nus;|tu so-|lus Al- tis- si-|mus: Je- su|Chri- * ste.|* Cum|
 G4 G4 A6 A2 | G8 !courtesy!^F8 | G12 G4 | E8 G4 G4- | G2 G2 A4 D4 A4 | A8 G4 G4- | %83
w: San- cto Spi- ri-|tu in|glo- ri-|a, in glo-|* ri- a De- i|Pa- tris. A-|
 (G4 ^F2 E2 F8) | G16 |][M:4/2] z16 | z16 | G8 E4 C4 | G4 G4 A8 | G4 G4 E4 F4 | G8 C4 F4 | %91
w: |men.|||Pa- trem o-|mni- po- ten-|tem fa- cto- rem|coe- li et|
 F8 E4 G4- | G4 G4 A4 G4 | E4 A8 A4 | D4 (E6 C2 D4) | E4 A8 E4 | G6 G2 G8 | G6 G2 G4 G4 | %98
w: ter- rae vi-|* si- bi- li-|um o- mni-|um et * *|in- vi- si-|bi- li- um.|Et in u- num|
 E4 F4 G4 G4 | G4 (G6 ^FE F4) | G8 G6 =F2 | E4 F4 D4 (G2 F2 | E2 D2 E6) D2 G4- | G4 ^F4 G4 D4- | %104
w: Do- mi- num Je-|su Chri- * * *|stum Fi- li-|um De- i u- *|* * * ni- ge-|* mi- tum. Et|
 D4 D4 F4 G4 | (E4 !courtesy!^F4) G4 G4 | G4 G6 G2 G4 | A4 E4 G4 G4 | E4 G4 G8 | G4 G4 E4 A4 | %110
w: * ex Pa- tre|na- * tum an-|te o- mni- a|sae- cu- la. De-|um de De-|o. Lu- men de|
 G6 G2 G8 | z16 | z16 | z16 | G6 G2 G4 G4 | ^F8 G4 G4- | G2 G2 G2 G2 E4 A4 | G8 G4 G4 | %118
w: Lu- mi ne.||||Ge- ni- tum non|fa- ctum con-|* sub- stan- ti- a- lem|Pa- tri: per|
 G4 G6 G2 E4 | G4 ^F4 G4 G4 | G4 G4 G8 | E6 =F2 G4 G4 | G4 A4 A8 | G4 G8 ^F4 | G16 | G8 E8 | %126
w: quem o- mni- a|fa- cta sunt. Qui|pro- pter nos|ho- mi- nes et|pro- pter nos-|tram sa- lu-|tem|de- scen-|
 C4 F4 E8 | ^F8 z8 || D8 E4 E4 | =F4 F4 E4 F4 | G6 G2 G4 A4- | (A4 G4) A8 | z4 D8 G4 | G4 G4 E8- | %134
w: dit de coe-|lis.|Et in- car-|na- tus est de|Spi- ri- tu San-|* * cto|ex Ma-|ri- a Vir-|
 E4 E4 E8 | z8 ^F8 | G8 G4 E4- | (E2 D2 B,2 C2 D4) D4 | D16 || G6 G2 E4 G4 | G4 G4 G4 c4 | A8 B8 | %142
w: * gi- ne|et|ho- mo fa-|* * * * * ctus|est.|Cru- ci- fi- xus|e- ti- am pro|no- bis|
 G8 A8 | F4 G8 E4 | F8 D4 E4- | E4 C4 D8 | B,4 C8 B,4 | C8 z8 || G4 A4 B4 c4- | c4 B4 A8 | %150
w: sub Pon-|ti- o Pi-|la- to, pas-|* sus et|se- pul- tus|est.|Et re- sur- re-|* xit ter-|
 D4 F4 E8 | D4 G4 E8 | A4 G4 G8 | ^F4 G4 G4 E4 | G4 G4 G8 | G4 G4 G4 G4 | A4 D4 G8 | G8 G8 || %158
w: ti- a di-|e se- cun-|dum scri- ptu-|ras. Et a- scen-|dit in coe-|lum; se- det ad|dex- te- ram|Pa- tris.|
 z4 G4 G6 G2 | G4 !courtesy!^F4 G4 c4 | B4 c4 A4 B4 | c4 A8 A4- | A4 ^G4 A4 !courtesy!^F4 | %163
w: Et i- te-|rum ven- tu- rus|est cum glo- ri-|a ju- di-|* ca- re vi-|
 G4 E4 E4 ^F4 | G8 z4 E4- | E4 =F4 G4 E4 | A8 G4 A4 | F2 G2 A2 B2 c2 G2 c4 | B4 G4 A4 G4 | F8 G8 || %170
w: vos et mor- tu-|os. Cu-|* jus re- gni|non e- rit|fi- * * * * * *|nis, non e- rit|fi- nis.|
 c4 c4 B4 B2 B2 | A4 G4 F4 E4 | G8 C4 D4 | E4 G4 (E4 !courtesy!^F4) | G8 z8 | z16 | z16 | z16 | %178
w: Et in Spi- ri- tum|San- ctum Do- mi-|num et vi-|vi- fi- can- *|tem:||||
 C4 C4 F8 | E4 E4 (G6 F2 | E4) E4 D4 G4- | G4 G4 G4 G4 | E8 E4 E4 | E4 G4 G4 G4 | %184
w: Qui cum Pa-|tre et Fi- *|* li- o si-|* mul a- do-|ra- tur et|con- glo- ri- fi-|
 (E4 !courtesy!^F4) G4 G4- | G4 G4 A4 D4 | G8 A4 A4 | G8 G8 | z4 G4 G4 G4 | %189
w: ca- * tur. Qui|* lo- cu- tus|est per Pro-|phe- tas.|Et u- nam|
 (E4 !courtesy!^F4) G4 G4 | A6 A2 B4 G4 | A4 B4 c6 A2 | c4 G4 A4 E4 | G4 G4 E4 !courtesy!^F4 | %194
w: San- * ctam Ca-|tho- li- cam et|A- po- sto- li-|cam Ec- cle- si-|am. Con- fi- te-|
 G4 G4 =F4 E4 | G8 G4 A4- | A2 A2 A2 A2 A4 A4 | A4 F4 A8 | A4 G8 G4 | A8 B4 c4- | %200
w: or u- num ba-|pti- sma in|* re- mis- si- o- nem|pec- ca- to-|rum. Et ex-|spe- cto re-|
 c2 c2 c2 c2 c4 c4 | B4 G4 A8 | D8 z4 E4 | F8 F8 | G4 D4 E4 (G4 | A4) E4 F4 A4 | _B4 F4 G4 D4 | %207
w: * sur- re- cti- o- nem|mor- tu- o-|rum. Et|vi- tam|ven- tu- ri sae-|* cu- li, ven-|tu- ri sae- cu-|
 E4 (G6 D2 G4) | G8 z8 | z4 (G8 ^F4) | G16 |][M:4/2] z16 | (C8 G8 | A8) G4 D2 E2 | F2 G2 A2 F2 G8 | %215
w: li. A- * *|men,|a- *|men.||San- *|* ctus, san- *||
 G8 (E6 F2 | G12) A4 | (A6 GA B4) G4 | z4 (G6 ^FE F4) | G4 G6 G2 G4 | G4 A4 A4 G4 | G8 G8 | %222
w: ctus, san- *|* ctus,|san- * * * ctus,|san- * * *|ctus. Do- mi- nus|De- us Sa- ba-|oth. Ple-|
 G4 G4 A8 | G4 G4 (E4 !courtesy!^F4) | G4 A6 A2 A4 | A8 A4 G4 | E4 G4 G8- | G4 D4 D8 | D16 |] %229
w: ni sunt coe-|li et ter- *|ra glo- ri- a|tu- a. Ho-|san- na in|* ex- cel-|sis.|
[M:4/2] z8 G8- | G4 E4 (G4 A4) | G4 E4 (^F4 G4-) | (G4 ^F4) G8 | z16 | z16 | z8 z4 ^F4 | %236
w: Be-|* ne- di- *|ctus qui ve- *|* * nit|||in|
 G6 G2 G4 G4- | G4 D4 E8 | z4 G4 G6 G2 | E2 ^F2 (G6 FE F4) | G16 |]:[M:4/2] G8 D4 G4- | %242
w: no- mi- ne Do-|* mi- ni.|Ho- san- na|in ex- cel- * * *|sis.|A- gnus De-|
 (G4 ^F2 E2 F8) | G16 | z8 G8 | A8 A4 G4 | (E4 !courtesy!^F4) G8 | G16 | G8 z4 A4 ||1 %249
w: |i|qui|tol- lis pec-|ca- * ta|mun-|di, pec-|
 A4 G4 (G6 F2 | E2 D2 E2 ^F2 G8) | G8 z4 G4 | =F4 A8 G4 | A8 A4 ^F4 | G4 G8 ^F4 | G16- | G16 | %257
w: ca- ta mun- *||di: mi-|se- re- re|no- bis, mi-|se- re- re|no-||
 G16 :|2 A4 G4 (G6 F2 || E2 D2 E2 ^F2 G8) | G8 z4 G4 | =F4 A8 G4 | A8 A4 ^F4 | G4 G8 ^F4 | G16- | %265
w: bis.|ca- ta mun- *||di: do-|na no- bis|pa- cem, do-|na no- bis|pa-|
 G16 | G16 |] %267
w: |cem.|
V:3
 z16 | z16 | z8 G8 | d4 d4 e8 | d8 (c2 d2 e2 c2) | d4 B4 A8 | G16 || z16 | z16 | z8 d8 | %10
w: ||Ky-|rie e- lei-|son, Ky- * * *|rie e- lei-|son.|||Chri-|
 B4 d4 (e8 | f8 e8) | d16 ||[M:3/2] d4 c4 d4 | (e6 d2) (e2 f2) | g4 e4 A4 | (B4 e4) d4 | d4 d4 G4 | %18
w: ste e- lei-||son.|Ky- rie e-|lei- * son, *|Ky- rie e-|lei- * son,|Ky- rie e-|
 A12 | G12 |][M:4/2] d6 d2 e4 e4 | d4 d4 c6 c2 | d4 d8 d4 | d4 G4 A8 | G4 g4 e4 ^f4 | g8 z8 | %26
w: lei-|son.|Et in ter- ra|pax ho- mi- ni-|bus bo- nae|vo- lun- ta-|tis. Lau- da- mus|te.|
 z8 z4 e4- | e4 d4 e4 ^f4 | g8 z8 | z8 z4 e4- | e2 e2 e4 c6 c2 | c4 d8 d4 | d4 f4 d8 | %33
w: A-|* do- ra- mus|te.|Gra-|* ti- as a- gi-|mus ti- bi|pro- pter ma-|
 e4 f6 f2 f4 | e8 d4 d4- | d2 d2 d4 c4 d4 | f8 c4 c4- | (c4 B4) c4 c4- | c4 c4 c8 | c4 G4 A6 A2 | %40
w: gnam glo- ri- am|tu- am. Do-|* mi- ne De- us.|Rex coe- le-|* * stis. De-|* us Pa-|ter o- mni- po-|
 G8 z8 | z16 | z16 | z16 | e8 d4 d4- | (d4 ^c2 B2 c8) | d4 d6 d2 d4 | e4 d4 =c4 B4 | %48
w: tens.||||Je- su Chri-||ste. Do- mi- ne|De- us A- gnus|
 A2 B2 c2 A2 B4 G4 | A4 B4 c8 | d8 e8 | f8 e8 | d16 || d4 e4 d4 e4 | f4 d4 c8 | d4 d8 e4 | %56
w: De- * * * * *|* * i.|Fi- li-|us Pa-|tris.|Qui tol- lis pec-|ca- ta mun-|di: mi- se-|
 c4 d4 e8 | d4 d4 e4 d4 | e4 f8 d4 | c8 d4 e4- | e2 e2 e4 f6 f2 | f4 f4 e4 d4 | e8 d4 B4 | %63
w: re- re no-|bis. Qui tol- lis|pec- ca- ta|mun- di: su-|* sci- pe de- pre-|ca- ti- o- nem|nos- tram. Qui|
 B8 B4 c4 | B4 B2 B2 c8 | d4 e8 d4 | c4 B4 A8 | B8 c6 c2 | c4 c4 B4 ^c4 | d8 ^c8 | z16 | z16 | %72
w: se- des a|dex- te- ram Pa-|tris: mi- se-|re- re no-|bis. Quo- ni-|am tu so- lus|San- ctus;|||
 z4 e4 f4 d4 | e4 f8 e4 | f4 f8 d4 | c8 (d6 c2 | B8) z8 | z16 | z4 G4 d4 d4 | e6 e2 d4 d4 | %80
w: tu so- lus|Al- tis- si-|mus: Je- su|Chri- ste. *|||Cum San- cto|Spi- ri- tu in|
 c6 c2 d4 d4 | e4 ^f4 g4 e4- | e4 =f4 d4 G4 | (A8 d8) | d16 |][M:4/2] d8 B4 G4 | d4 d4 (e8 | %87
w: glo- ri- a, in|glo- ri- a De-|* i Pa- tris.|A- *|men.|Pa- trem o-|mni- po- ten-|
 d8) c8 | z4 d4 f4 f4 | (d8 c8) | d4 e4 (A4 c4-) | (c4 B4) c8 | d6 d2 d4 d4 | c4 f8 e4 | g8 e4 d4 | %95
w: * tem|fa- cto- rem|coe- *|li et ter- *|* * rae|vi- si- bi- li-|um o- mni-|um et in-|
 c4 f4 (e6 dc | d6) d2 c8 | d6 d2 d4 d4 | c4 c4 d4 e4- | e4 d4 d8 | d8 z8 | z16 | z16 | z8 z4 B4- | %104
w: vi- si- bi- * *|* li- um.|Et in u- num|Do- mi- num Je-|* su Chri-|stum.|||Et|
 B4 B4 c4 e4 | c8 d4 e4 | d4 e6 e2 d4 | e4 c4 d8 | z16 | z4 d4 c4 f4 | d6 d2 c4 e4 | e4 (g8 ^f4) | %112
w: * ex Pa- tre|na- tum an-|te o- mni- a|sae- cu- la.||Lu- men de|Lu- mi ne. De-|um ve- *|
 g4 g4 =f4 e4 | d8 c8 | c6 d2 e4 d4 | d8 d4 d4- | d2 d2 d2 d2 c4 f4 | d8 c4 e4 | d4 e6 d2 c4 | %119
w: rum de De- o|ve- ro.|Ge- ni- tum non|fa- ctum con-|* sub- stan- ti- a- lem|Pa- tri: per|quem o- mni- a|
 d4 d4 d4 d4 | e4 e4 d8 | c6 c2 d4 d4 | e4 e4 f8 | d4 e4 c8 | d8 e8 | d8 c4 B4 | (A4 d8 ^c4) | %127
w: fa- cta sunt. Qui|pro- pter nos|ho- mi- nes et|pro- pter nos-|tram sa- lu-|tem de-|scen- dit de|coe- * *|
 d8 z8 || B8 c4 c4 | c4 d4 c8 | d4 e6 e2 e4 | d8 e8 | z4 g8 d4 | e4 d4 (c8 | B6) B2 ^c8 | z8 d8 | %136
w: lis.|Et in- car-|na- tus est|de Spi- ri- tu|San- cto|ex Ma-|ri- a Vir-|* gi- ne|et|
 d8 e4 =c4- | c2 B2 B2 AG A4 A4 | G16 || d6 d2 c4 d4 | e4 d4 e2 f2 g4- | (g4 ^f4) g8 | e4 e8 f4 | %143
w: ho- mo fa-|* * * * * * ctus|est.|Cru- ci- fi- xus|e- ti- am pro no-|* * bis|sub Pon- ti-|
 d8 e4 c4- | c4 d4 =B8 | c4 A8 B4 | G8 G8 | G8 z8 || c4 e4 g4 g4- | g4 g4 e8 | g4 a4 g8 | %151
w: o Pi- la-|* to, pas-|sus et se-|pul- tus|est.|Et re- sur- re-|* xit ter-|ti- a di-|
 g4 d4 c4 e4 | f4 (d8 ^c4) | d4 d4 B4 c4 | d4 d4 e8 | d4 e4 d4 e4 | f4 f4 e8 | d8 c8 || %158
w: e se- cun- dum|scri- ptu- *|ras. Et a- scen-|dit in coe-|lum; se- det ad|dex- te- ram|Pa- tris.|
 z4 G4 c6 B2 | c4 d4 e4 c4 | g4 e4 f4 d4 | c4 f8 d4 | e8 A4 d4 | B4 c4 A6 A2 | G8 z4 c4- | %165
w: Et i- te-|rum ven- tu- rus|est cum glo- ri-|a ju- di-|ca- re vi-|vos et mor- tu-|os. Cu-|
 c4 d4 e4 c4 | f8 e4 f4 | d8 c8 | g8 f4 e4 | d8 c8 || g4 g4 g4 g2 g2 | e4 e4 c4 c4 | d4 e8 d4 | %173
w: * jus re- gni|non e- rit|fi- nis,|non e- rit|fi- nis.|Et in Spi- ri- tum|San- ctum Do- mi-|num et vi-|
 c4 d4 c4 c4 | d4 d4 e8 | c4 d6 c2 B4 | c8 A4 c4- | (c4 B4) c8 | z16 | z16 | z8 z4 d4- | %181
w: vi- fi- can- tem:|Qui ex Pa-|tre Fi- li- o-|que pro- ce-|* * dit.|||si-|
 d4 d4 e4 d4 | c8 B4 B4 | c4 d4 e4 d4 | c8 d4 e4 | e8 f4 f4 | e8 e4 f4 | d8 c8 | z4 d4 d4 d4 | %189
w: * mul a- do-|ra- tur et|con- glo- ri- fi-|ca- tur. Qui|lo- cu- tus|est per Pro-|phe- tas.|Et u- nam|
 c8 d4 e4 | f6 e2 g4 e4 | e4 g4 g6 f2 | g4 d4 e4 c4 | d4 d4 c6 c2 | d4 e4 c4 c4 | d8 e4 f4- | %196
w: San- ctam Ca-|tho- li- cam et|A- po- sto- li-|cam Ec- cle- si-|am. Con- fi- te-|or u- num ba-|pti- sma in|
 f2 f2 f2 f2 f4 d4 | c4 d4 e8 | d4 d8 e4 | ^f8 g4 g4- | g2 g2 g2 g2 g4 a4 | g6 e2 ^f8 | g4 G8 c4- | %203
w: * re- mis- si- o- nem|pec- ca- to-|rum. Et ex-|spe- cto re-|* sur- re- cti- o- nem|mor- tu- o-|rum. Et vi-|
 c4 A8 d4- | d4 B8 e4- | e4 c8 f4- | f4 d8 g4- | (g2 f2 e4 d8) | c8 z8 | d16 | d16 |][M:4/2] z16 | %212
w: * tam ven-|* tu- ri|* sae- cu-|* li. A-||men,|a-|men.||
 z16 | z8 (G8 | d8 e8) | d8 c2 d2 e2 c2 | d4 e4 c8 | f6 e2 d8 | e8 d8 | d4 d6 d2 d4 | e4 e4 f4 d4 | %221
w: |San-||ctus, san- * * *|* * ctus,|san- * *||ctus. Do- mi- nus|De- us Sa- ba-|
 e8 d8 | e4 e4 f8 | d4 e4 c8 | d4 f6 f2 f4 | e8 d8 | z4 d4 e4 e4 | d4 B4 A8 | G16 |][M:4/2] z16 | %230
w: oth. Ple-|ni sunt coe-|li et ter-|ra glo- ri- a|tu- a.|Ho- san- na|in ex- cel-|sis.||
 z16 | z16 | d12 B4 | (d4 e4) d4 c4 | (B6 AG) A4 d4 | d4 ^c4 d8 | d4 d6 d2 e4 | d6 d2 c8 | %238
w: ||Be- ne-|di- * ctus qui|ve- * * nit in|no- mi- ne,|in no- mi- ne|Do- mi- ni.|
 z4 d4 e4 B4 | c4 G4 A8 | B16 |]:[M:4/2] d12 d4 | c16 | d4 d4 e8 | e4 e4 e6 d2 | c2 B2 c4 A4 B4 | %246
w: Ho- san- na|in ex- cel-|sis.|A- gnus|De-|i qui tol-|lis pec- ca- *|* * * * ta|
 (c8 d8) | c4 e4 d2 c2 B2 c2 | d2 B2 e4 c4 f4 ||1 f4 e4 z4 B4 | c4 c4 d8 | c4 d8 e4 | c4 f4 e4 d4 | %253
w: mun- *|di, pec- ca- * * *|* * * * ta|mun- di, pec-|ca- ta mun-|di: mi- se-|re- re no- bis,|
 e6 e2 f4 d4 | d8 d4 d4- | (d2 c2 B2 A2 B4) c4 | c4 d4 e8 | d16 :|2 f4 e4 z4 B4 || c4 c4 d8 | %260
w: mi- se- re- re|no- bis, mi-|* * * * * se-|re- re no-|bis.|mun- di, pec-|ca- ta mun-|
 c4 d8 e4 | c4 f4 e4 d4 | e6 e2 f4 d4 | d8 d4 d4- | (d2 c2 B2 A2 B4) c4 | c4 d4 e8 | d16 |] %267
w: di: do- na|no- bis pa- cem,|do- na no- bis|pa- cem, do-|* * * * * na|no- bis pa-|cem.|
V:4
 z16 | z16 | z16 | z8 z4 C,4 | G,4 G,4 (A,8 | G,8 D,8) | G,16 || z16 | z16 | z16 | G,8 E,4 C,4 | %11
w: |||Ky-|rie e- lei-||son.||||Chri- ste e-|
 (F,6 G,2 A,8) | D,16 ||[M:3/2] G,4 A,4 G,4 | C6 B,2 A,4 | G,4 A,4 F,4 | E,6 F,2 G,4 | %17
w: lei- * *|son.|Ky- rie e-|lei- * son,|Ky- rie e-|lei- * son,|
 ^F,4 G,4 E,4 | D,12 | G,12 |][M:4/2] G,6 G,2 E,4 C,4 | G,4 G,4 A,6 A,2 | G,4 G,8 ^F,4 | %23
w: Ky- rie e-|lei-|son.|Et in ter- ra|pax ho- mi- ni-|bus bo- nae|
 G,4 E,4 D,8 | G,4 G,4 C4 A,4 | G,8 z8 | z8 z4 C4- | C4 B,4 A,4 A,4 | G,8 z8 | z8 z4 C,4- | %30
w: vo- lun- ta-|tis. Lau- da- mus|te.|A-|* do- ra- mus|te.|Gra-|
 C,2 C,2 C,4 F,6 F,2 | F,4 D,8 D,4 | G,4 F,4 _B,8 | A,4 F,6 F,2 D,4 | A,8 D,4 G,4- | %35
w: * ti- as a- gi-|mus ti- bi|pro- pter ma-|gnam glo- ri- am|tu- am. Do-|
 G,2 G,2 G,4 A,4 G,4 | F,12 E,4 | D,8 C,4 C,4- | C,4 C,4 F,8 | C,4 E,4 D,6 D,2 | G,8 z8 | z16 | %42
w: * mi- ne De- us.|Rex coe-|le- stis. De-|* us Pa-|ter o- mni- po-|tens.||
 z16 | z16 | C,8 G,8 | E,16 | D,8 z4 G,4- | G,2 G,2 G,4 A,4 G,4 | =F,8 E,8 | D,8 C,8 | %50
w: ||Je- su|Chri-|ste. Do-|* mi- ne De- us|A- gnus|De- i.|
 G,8 E,4 C,4 | (F,6 G,2 A,8) | D,16 || G,4 C4 B,4 C4 | F,4 G,4 A,8 | G,4 G,8 E,4 | F,4 D,4 C,8 | %57
w: Fi- li- us|Pa- * *|tris.|Qui tol- lis pec-|ca- ta mun-|di: mi- se-|re- re no-|
 G,4 G,4 C4 B,4 | C4 F,8 G,4 | A,8 G,4 C,4- | C,2 C,2 C,4 F,6 F,2 | D,4 D,4 A,4 _B,4 | %62
w: bis. Qui tol- lis|pec- ca- ta|mun- di: su-|* sci- pe de- pre-|ca- ti- o- nem|
 A,8 D,4 G,4 | G,8 E,4 C,4 | G,4 G,2 G,2 A,8 | G,4 C8 G,4 | A,4 E,4 F,8 | E,8 A,6 A,2 | %68
w: nos- tram. Qui|se- des a|dex- te- ram Pa-|tris: mi- se-|re- re no-|bis. Quo- ni-|
 A,4 A,4 ^G,4 A,4 | D,8 A,8 | z16 | z8 z4 A,4 | _B,4 A,4 D8 | C12 C4 | F,4 F,8 G,4 | A,8 G,8- | %76
w: am tu so- lus|San- ctus;||tu|so- lus Al-|tis- si-|mus: Je- su|Chri- ste.|
 G,8 z8 | z16 | z16 | z4 C,4 G,4 G,4 | A,6 A,2 G,4 G,4 | C4 A,4 G,4 A,4- | A,4 F,4 G,4 E,4 | D,16 | %84
w: |||Cum San- cto|Spi- ri- tu in|glo- ri- a De-|* i Pa- tris.|A-|
 G,16 |][M:4/2] z16 | G,8 E,4 C,4 | G,4 G,4 A,8 | G,8 z4 D,4 | G,4 G,4 A,8 | G,4 E,4 (F,6 E,2 | %91
w: men.||Pa- trem o-|mni- po- ten-|tem fa-|cto- rem coe-|li et ter- *|
 D,8) C,8 | G,6 G,2 ^F,4 G,4 | A,4 =F,8 A,4 | G,4 C8 B,4 | A,4 F,4 (A,8 | G,6) G,2 C,8 | %97
w: * rae|vi- si- bi- li-|um o- mni-|um et in-|vi- si- bi-|* li- um.|
 G,6 G,2 G,4 G,4 | A,4 A,4 G,4 C,4- | C,4 G,4 D,8 | G,8 z8 | z16 | z16 | z8 z4 G,4- | %104
w: Et in u- num|Do- mi- num Je-|* su Chri-|stum.|||Et|
 G,4 G,4 F,4 E,4 | A,8 G,4 C4 | G,4 C6 C2 B,4 | A,6 A,2 G,4 G,4 | A,4 B,4 C8 | G,4 G,4 A,4 F,4 | %110
w: * ex Pa- tre|na- tum an-|te o- mni- a|sae- cu- la. De-|um de De-|o. Lu- men de|
 G,6 G,2 C,4 C4- | C4 B,4 A,8 | G,4 G,4 A,2 B,2 C4- | (C4 B,4) C8 | C,6 B,,2 C,4 G,4 | %115
w: Lu- mi ne. De-|* um ve-|rum de De- o ve-|* * ro.|Ge- ni- tum non|
 D,8 G,4 G,4- | G,2 G,2 G,2 G,2 A,4 F,4 | G,8 C,4 C4 | B,4 C6 G,2 A,4 | G,4 D,4 G,4 G,4 | %120
w: fa- ctum con-|* sub- stan- ti- a- lem|Pa- tri: per|quem o- mni- a|fa- cta sunt. Qui|
 E,4 C,4 G,8 | A,6 A,2 G,4 G,4 | C4 A,4 D8 | B,4 C4 A,8 | G,8 C8 | G,8 A,4 E,4 | (F,6 G,2 A,8) | %127
w: pro- pter nos|ho- mi- nes et|pro- pter nos-|tram sa- lu-|tem de-|scen- dit de|coe- * *|
 D,8 z8 || G,8 C,4 C,4 | F,4 F,4 A,8 | G,4 C6 C2 A,4 | _B,8 A,8 | z4 G,8 G,4 | C4 G,4 (A,8 | %134
w: lis.|Et in- car-|na- tus est|de Spi- ri- tu|San- cto|ex Ma-|ri- a Vir-|
 E,6) E,2 A,8 | z8 D,8 | G,8 C,8 | E,8 D,8 | G,16 || G,6 G,2 A,4 G,4 | C4 B,4 C4 C4 | D8 G,8 | %142
w: * gi- ne|et|ho- mo|fa- ctus|est.|Cru- ci- fi- xus|e- ti- am pro|no- bis|
 C8 A,8 | _B,4 G,8 A,4 | F,8 G,4 E,4- | E,4 F,4 D,8 | E,4 C,8 G,4 | C,8 z8 || C4 A,4 G,4 C4- | %149
w: sub Pon-|ti- o Pi-|la- to, pas-|* sus et|se- pul- tus|est.|Et re- sur- re-|
 C4 G,4 A,8 | G,4 F,4 C8 | G,4 G,4 A,8 | F,4 G,4 E,8 | D,4 G,4 G,4 A,4 | B,4 G,4 C8 | %155
w: * xit ter-|ti- a di-|e se- cun-|dum scri- ptu-|ras. Et a- scen-|dit in coe-|
 G,4 C4 B,4 C4 | A,4 B,4 C8 | G,8 C,8 || z16 | z16 | z16 | z16 | z16 | z16 | z16 | z16 | z16 | %167
w: lum; se- det ad|dex- te- ram|Pa- tris.||||||||||
 z16 | z16 | z16 || C4 C4 G,4 G,2 G,2 | A,4 E,4 F,4 A,4 | G,4 C8 B,4 | A,4 G,4 A,8 | %174
w: |||Et in Spi- ri- tum|San- ctum Do- mi-|num et vi-|vi- fi- can-|
 G,4 G,4 G,4 A,4- | A,4 =F,4 G,6 F,2 | E,4 F,8 E,4 | D,8 C,8 | z16 | z16 | z8 z4 G,4- | %181
w: tem: Qui ex Pa-|* tre Fi- li-|o- que pro-|ce- dit.|||si-|
 G,4 G,4 C4 G,4 | A,8 E,4 E,4 | A,4 G,4 C4 G,4 | A,8 G,4 C,4- | C,4 C4 A,4 B,4 | C8 A,4 F,4 | %187
w: * mul a- do-|ra- tur et|con- glo- ri- fi-|ca- tur. Qui|* lo- cu- tus|est per Pro-|
 G,8 C,8 | z4 G,4 G,4 G,4 | A,8 G,4 C4 | F,6 A,2 G,4 C4 | A,4 G,4 C6 D2 | C4 B,4 A,4 A,4 | %193
w: phe- tas.|Et u- nam|San- ctam Ca-|tho- li- cam et|A- po- sto- li-|cam Ec- cle- si-|
 G,4 G,4 A,6 A,2 | G,4 E,4 F,4 A,4 | G,8 C,4 F,4- | F,2 F,2 F,2 F,2 D,4 D,4 | A,4 _B,4 A,8 | %198
w: am. Con- fi- te-|or u- num ba-|pti- sma in|* re- mis- si- o- nem|pec- ca- to-|
 D,4 G,8 E,4 | D,8 G,4 C4- | C2 C2 C2 C2 C4 A,4 | B,4 C4 A,8 | G,8 C,8 | F,8 D,8 | G,8 E,8 | %205
w: rum. Et ex-|spe- cto re-|* sur- re- cti- o- nem|mor- tu- o-|rum. Et|vi- tam|ven- tu-|
 A,8 F,8 | _B,8 G,8 | (C8 G,8) | C,8 z8 | (G,8 D,8) | G,16 |][M:4/2] z16 | z16 | z16 | z8 (C,8 | %215
w: ri sae-|cu- li.|A- *|men,|a- *|men.||||San-|
 G,8 A,8) | G,4 (C6 B,2 A,2 G,2 | F,4) D,4 (G,6 F,2 | E,4) C,4 D,8 | G,4 G,6 G,2 G,4 | %220
w: |ctus, san- * * *|* ctus, san- *|* ctus, san-|ctus. Do- mi- nus|
 C4 A,4 F,4 G,4 | C,8 G,8 | C4 C4 F,8 | G,4 E,4 A,8 | G,4 F,6 F,2 D,4 | A,8 D,4 G,4 | %226
w: De- us Sa- ba-|oth. Ple-|ni sunt coe-|li et ter-|ra glo- ri- a|tu- a. Ho-|
 A,4 G,4 (C,2 D,2 E,2 F,2 | G,4) G,4 D,8 | G,16 |][M:4/2] z16 | z16 | z16 | z8 G,8- | %233
w: san- na in * * *|* ex- cel-|sis.||||Be-|
 G,4 E,4 (G,4 A,4) | G,4 E,4 ^F,4 G,4 | E,8 D,4 D,4 | G,6 A,2 B,4 (E,2 F,2 | G,6) G,2 C,8 | %238
w: * ne- di- *|ctus qui ve- *|* nit in|no- mi- ne Do- *|* mi- ni.|
 z4 G,4 C4 G,4 | A,4 E,4 D,8 | G,16 |]:[M:4/2] G,12 G,4 | A,16 | G,4 G,4 C8 | A,4 A,4 (C6 B,2 | %245
w: Ho- san- na|in ex- cel-|sis.|A- gnus|De-|i qui tol-|lis pec- ca- *|
 A,2 G,2 F,8) E,4 | A,8 G,8 | z4 C4 G,8 | G,4 E,4 (F,6 G,2 ||1 A,2 B,2 C8) G,4 | A,8 G,8 | %251
w: * * * ta|mun- di,|qui tol-|lis pec- ca- *|* * * ta|mun- di:|
 z4 G,8 E,4 | (F,6 G,2 A,4) _B,4 | A,8 D,8 | G,8 D,8 | (G,6 F,2 E,2 D,2 C,4-) | C,4 B,,4 C,8 | %257
w: mi- se-|re- * * re|no- bis,|mi- se-|re- * * * *|* re no-|
 G,16 :|2 A,2 B,2 C8 G,4 || A,8 G,8 | z4 G,8 E,4 | (F,6 G,2 A,4) _B,4 | A,8 D,8 | G,8 D,8 | %264
w: bis.|* * * ta|mun- di:|do- na|no- * * bis|pa- cem,|do- na|
 (G,6 F,2 E,2 D,2 C,4-) | C,4 B,,4 C,8 | G,16 |] %267
w: no- * * * *|* bis pa-|cem.|

